X: 1
T: Heather Hill
M: 4/4
L: 1/8
R: reel
K: Gmaj
|:G2BA BGGB|dedB G3B|dedB degd|egdB A3B|
G2BA BGGB|dedB G3B|dedB degd|egdB G3f:|
|:gage gdde|gage degd|eaab ageg|abag eeef|
gage gdde|gage degd|eaab agea|gedB G3B:|
